src/assets/icons/palette.svg

<svg xmlns="http://www.w3.org/2000/svg" height="24" viewBox="0 0 24 24" width="24">
    <path d="M12 3c-4.97 0-9 4.03-9 9s4.03 9 9 9c.83 0 1.5-.67 1.5-1.5 0-.39-.15-.74-.39-1.01-.23-.26-.38-.61-.38-.99 0-.83.67-1.5 1.5-1.5H16c2.76 0 5-2.24 5-5 0-4.42-4.03-8-9-8zm-5.5 9c-.83 0-1.5-.67-1.5-1.5S5.67 9 6.5 9 8 9.67 8 10.5 7.33 12 6.5 12zm3-4C8.67 8 8 7.33 8 6.5S8.67 5 9.5 5s1.5.67 1.5 1.5S10.33 8 9.5 8zm5 0c-.83 0-1.5-.67-1.5-1.5S13.67 5 14.5 5s1.5.67 1.5 1.5S15.33 8 14.5 8zm3 4c-.83 0-1.5-.67-1.5-1.5S16.67 9 17.5 9s1.5.67 1.5 1.5-.67 1.5-1.5 1.5z"/>
    <path d="M0 0h24v24H0z" fill="none"/>
</svg>

<?xml version="1.0" encoding="UTF-8"?><!DOCTYPE svg PUBLIC "-//W3C//DTD SVG 1.1//EN"
        "http://www.w3.org/Graphics/SVG/1.1/DTD/svg11.dtd">
<svg xmlns="http://www.w3.org/2000/svg"
     version="1.1" width="30" height="30" viewBox="3 3 18 18">
    <path d="M17.5,12A1.5,1.5 0 0,1 16,10.5A1.5,1.5 0 0,1 17.5,9A1.5,1.5 0 0,1 19,10.5A1.5,1.5 0 0,1 17.5,12M14.5,8A1.5,1.5 0 0,1 13,6.5A1.5,1.5 0 0,1 14.5,5A1.5,1.5 0 0,1 16,6.5A1.5,1.5 0 0,1 14.5,8M9.5,8A1.5,1.5 0 0,1 8,6.5A1.5,1.5 0 0,1 9.5,5A1.5,1.5 0 0,1 11,6.5A1.5,1.5 0 0,1 9.5,8M6.5,12A1.5,1.5 0 0,1 5,10.5A1.5,1.5 0 0,1 6.5,9A1.5,1.5 0 0,1 8,10.5A1.5,1.5 0 0,1 6.5,12M12,3A9,9 0 0,0 3,12A9,9 0 0,0 12,21A1.5,1.5 0 0,0 13.5,19.5C13.5,19.11 13.35,18.76 13.11,18.5C12.88,18.23 12.73,17.88 12.73,17.5A1.5,1.5 0 0,1 14.23,16H16A5,5 0 0,0 21,11C21,6.58 16.97,3 12,3Z"
          fill="#fff"/>
</svg>
